assets/symbols/mulberry/ring_binder.svg

<svg height="850.394" viewBox="0 0 850.394 850.394" width="850.394" xmlns="http://www.w3.org/2000/svg"><path d="m662.96 67.59v577.44l-329.66 167.85-7.85-3.42v-685.29l285.65-47.92z" fill="#00e800"/><path d="m325.45 124.17v685.29l-111.16-47.93.61-623.96v-39.88z" fill="#33a02c"/><path d="m244.3 93.67 366.8-49.54v32.12l-285.65 47.92-110.55-26.48z" fill="#787878"/><g fill="none"><g stroke="#000" stroke-width="23.412"><path d="m611.1 76.25v-32.12l-366.8 49.54-29.4 4.02 110.55 26.48 285.65-47.92 51.86-8.66v577.44l-329.66 167.85-7.85-3.42-111.16-47.93.61-623.96m110.55-13.4v688.71"/><path d="m214.9 137.57v-40.58l29.4-3.32 46.61-5.14"/></g><path d="m0 0h850.394v850.394h-850.394z"/></g></svg>

<svg xmlns="http://www.w3.org/2000/svg" width="850.394" height="850.394" viewBox="0 0 850.394 850.394" overflow="visible"><path fill="#00e800" d="M662.96 67.59v577.44L333.3 812.88l-7.85-3.42V124.17L611.1 76.25z"/><path fill="#33a02c" d="M325.45 124.17v685.29l-111.16-47.93.61-623.96V97.69z"/><path fill="#787878" d="M244.3 93.67l366.8-49.54v32.12l-285.65 47.92L214.9 97.69z"/><g fill="none" stroke="#000" stroke-width="23.412"><path d="M611.1 76.25V44.13L244.3 93.67l-29.4 4.02 110.55 26.48L611.1 76.25l51.86-8.66v577.44L333.3 812.88l-7.85-3.42-111.16-47.93.61-623.96M325.45 124.17V812.88"/><path d="M214.9 137.57V96.99l29.4-3.32 46.61-5.14"/></g><path fill="none" d="M0 0h850.394v850.394H0z"/></svg>
